X: 2
T: Royals Quick Step
O: No 2 Page 1 William Clark of Feltwell  MS 1858
Z: Anahata <anahata@treewind.co.uk>
M: 2/4
L: 1/8
K: G
e/f/ | gdBG | gdBG | (c/B/A/G/) FA | fAAe/f/ |
gdBG | gdBG |c/B/A/G/ F/G/A/c/| BG G :|
|: B | G/A/B/c/ df | ecdB | c/B/A/G/ FA | fAAB |
G/A/B/c/ df | ecdB | c/B/A/G/ F/G/A/c/ | BG G :|
e/f/ | gefd | ecdB | c/B/A/G/ FA | fAAe/f/|
gefd | ecdB | c/B/A/G/ F/G/A/c/ |BG G :|

